X: 091
T: Lady Herriot Hopes Reel
R: reel
M: C|
L: 1/8
Z: 2012 John Chambers <jc:trillian.mit.edu>
B: J. Anderson "Budget of Strathspeys, Reels and Country Dances" (Early 1800s) p.9 #1
F: http://imslp.org/wiki/Anderson%27s_Budget_of_Strathspeys,_Reels_and_Country_Dances_(Various)
K: G
|:\
GB dg edcB | Ggbg aAAB | GBdg edcB | cAdB G/G/GG2 :|
(gd).g.a (gb).a.g | fdad bdad | gdga gbag | dgfa g/g/gg2 |
gdga gbag | agab c'bab | gedc Bdge | dBcA G/G/GG2 |]

%%sep 2 1 500
%%sep 1 1 500

